X: 26
T: Connaughtman's Rambles, The
Z: birlibirdie
S: https://thesession.org/tunes/19#setting49852
R: jig
M: 6/8
L: 1/8
K: Dmaj
|:FAA dAA|BAB dAG|FAA dfe|dBB BAG|
FAA dAA|BB/B/B def|afe f/f/fe|1 dBB BAG:|2 dBA B2(f||
f)bb faf|fef def|fbb faf|fed e/e/ed|
fbb faf|fef def|afe f/f/fe|dBA B2(de)|
fbb faf|fef def|b3 faf|fed e/e/ed|
bd'b ad'a|fgf def|afe ffe|dBB BAG||
FAA dAA|BAB dAG|FAA dfe|dBB BAG|
FAA dAA|BB/B/B def|afe f/f/fe|dBB BAG|
DFA dd/d/d|BBB dAG|DFA dfe|dBB BAG|
FAA dd/d/d|B{A}BB def|gfe f/f/fe|dBA B{c}de||
fbb faf|fef def|gbb fd'b|afd e/e/ed|
dbb fd'b|ebb def|afe f/f/fe|dBA BB2|
Bbb fag|fef def|gbb fd'b|afd e/e/ed|
bd'b ad'a|fgf def|gfe f<fe|dBB B2||

